X:1
T:Scheherazade Analysis
T:Scheherazade Analysis
T:N. Rimsky-Korsakov Analisis by S. Shchetnikov 
T:The analysis is based on Rimsky-Korsakov's instructions from the "Practical Manual of Harmony". See https://musescore.com/user/30712651/scores/5978455 
%%score { ( 1 2 ) | ( 3 4 ) }
L:1/8
M:4/4
K:C
V:1 treble nm="Piano" snm="Pno."
V:2 treble 
V:3 bass 
V:4 bass 
V:1
"""_C:" (3:2:2(c8 G4 |"""_A♭:" (3:2:4_B8- B2 A^G |"""_D:" (3:2:4A8- A2 ^GA |"""_D:" (3:2:2d8 A4) |] %4
V:2
 (G8- | G8- | G8 | ^F8) |] %4
V:3
"_\"You can connect a major or minor triad\nwith a dominant seventh chord whose\nroot tone is distant by a major or\nminor third from the root tone of the triad.\"\n" ([E,C]8 | %1
 _D4- ^C4- | %2
"_\"You can connect two dominant seventh\nchords whose roots are distant by a diminished\nfifth or a augmented fourth.\"\n" ^C8 | %3
 D8) |] %4
V:4
 x8 | (_E,8 | =E,8 | ^F,8) |] %4

